X: 120
T:Off She Goes. JaW.120
M:6/8
Q:120
S:James Winder Ms, Lancashire, 1835-41
R:Jig
O:England
A:Wyresdale,Lancashire
H:1/8
Z:vmp.Chris Partington, Aug 2004
K:D
F2A G2B|ABc d3|F2A G2B|AGF E3|!
F2A G2B|ABc d3|f2d g2e|edc d3:|!
|:faf def|eae cde|faf def|ecA A3|!
faf def|eae cde|faf gec|ddd d3:|]
